symbols/web/airline_stops/materialsymbolsoutlined/airline_stops_wght100gradN25_20px.svg

<svg xmlns="http://www.w3.org/2000/svg" height="20" width="20"><path d="M8.042 15.25v-.604h1.666q0-3.188-2.166-5.427-2.167-2.24-5.292-2.24v-.604q2.771 0 4.927 1.719 2.156 1.718 2.885 4.385.417-1.625 1.823-3.177Q13.292 7.75 15.729 6.5h-3.562v-.625h4.771v4.417h-.605V6.917q-3.166 1.521-4.645 3.625-1.48 2.104-1.376 4.104h1.667v.604Z"/></svg>

<svg xmlns="http://www.w3.org/2000/svg" height="20" width="20"><path d="M8.042 15.25V14.646H9.708Q9.708 11.458 7.542 9.219Q5.375 6.979 2.25 6.979V6.375Q5.021 6.375 7.177 8.094Q9.333 9.812 10.062 12.479Q10.479 10.854 11.885 9.302Q13.292 7.75 15.729 6.5H12.167V5.875H16.938V10.292H16.333V6.917Q13.167 8.438 11.688 10.542Q10.208 12.646 10.312 14.646H11.979V15.25Z"/></svg>
